src/assets/RECENT_TAB.svg

<svg width="410" height="141" viewBox="0 0 410 141" fill="none" xmlns="http://www.w3.org/2000/svg">
<rect x="0.985442" y="1.11384" width="379.805" height="138.344" rx="21.3219" transform="matrix(1 -7.7343e-09 -0.121869 0.992546 17.4515 0.561266)" fill="#D3A7E0" stroke="#373737" stroke-width="2.24441"/>
<path d="M47.8943 20.296L47.5877 23.4059L52.2752 23.4059C53.3169 23.4059 53.8888 22.8876 53.991 21.851C54.0932 20.8143 53.6235 20.296 52.5818 20.296L47.8943 20.296ZM46.9745 29.6258L46.3614 35.8456L40.1114 35.8456L42.2575 14.0762L53.195 14.0762C58.4033 14.0762 60.752 16.6678 60.241 21.851C59.8322 25.9975 57.9203 28.4855 54.5052 29.3148L60.4239 35.8456L52.6114 35.8456L46.9745 29.6258ZM81.0362 14.0762L80.423 20.296L71.048 20.296L70.8947 21.851L78.7072 21.851L78.0941 28.0708L70.2816 28.0708L70.1283 29.6258L79.5033 29.6258L78.8901 35.8456L63.2651 35.8456L65.4112 14.0762L81.0362 14.0762ZM94.0962 14.0762L101.127 14.0762L100.514 20.296L93.483 20.296C92.1914 20.296 91.0422 20.7521 90.0356 21.6644C89.029 22.5766 88.4624 23.6755 88.3357 24.9609C88.2089 26.2463 88.5589 27.3452 89.3857 28.2574C90.2124 29.1697 91.2716 29.6258 92.5633 29.6258L99.5945 29.6258L98.9814 35.8456L91.9501 35.8456C88.9293 35.8456 86.4559 34.7831 84.53 32.658C82.6041 30.5328 81.7893 27.9672 82.0857 24.9609C82.382 21.9546 83.7027 19.3889 86.0476 17.2638C88.3925 15.1387 91.0754 14.0762 94.0962 14.0762ZM121.344 14.0762L120.731 20.296L111.356 20.296L111.202 21.851L119.015 21.851L118.402 28.0708L110.589 28.0708L110.436 29.6258L119.811 29.6258L119.198 35.8456L103.573 35.8456L105.719 14.0762L121.344 14.0762ZM131.112 24.9609L130.039 35.8456L123.789 35.8456L125.935 14.0762L132.185 14.0762L138.924 24.9609L139.997 14.0762L146.247 14.0762L144.101 35.8456L137.851 35.8456L131.112 24.9609ZM159.88 35.8456L153.63 35.8456L155.163 20.296L149.694 20.296L150.307 14.0762L167.495 14.0762L166.882 20.296L161.413 20.296L159.88 35.8456ZM192.314 20.296L192.008 23.4059L196.695 23.4059C197.737 23.4059 198.309 22.8876 198.411 21.851C198.513 20.8143 198.043 20.296 197.002 20.296L192.314 20.296ZM191.395 29.6258L190.781 35.8456L184.531 35.8456L186.677 14.0762L197.615 14.0762C202.823 14.0762 205.172 16.6678 204.661 21.851C204.15 27.0342 201.29 29.6258 196.082 29.6258L191.395 29.6258ZM214.781 20.296L214.474 23.4059L219.161 23.4059C220.203 23.4059 220.775 22.8876 220.877 21.851C220.979 20.8143 220.51 20.296 219.468 20.296L214.781 20.296ZM213.861 29.6258L213.248 35.8456L206.998 35.8456L209.144 14.0762L220.081 14.0762C225.29 14.0762 227.638 16.6678 227.127 21.851C226.718 25.9975 224.807 28.4855 221.391 29.3148L227.31 35.8456L219.498 35.8456L213.861 29.6258ZM239.964 35.8456C236.943 35.8456 234.47 34.7831 232.544 32.658C230.618 30.5328 229.803 27.9672 230.099 24.9609C230.396 21.9546 231.716 19.3889 234.061 17.2638C236.406 15.1387 239.089 14.0762 242.11 14.0762C245.131 14.0762 247.604 15.1387 249.53 17.2638C251.456 19.3889 252.271 21.9546 251.974 24.9609C251.678 27.9672 250.357 30.5328 248.012 32.658C245.668 34.7831 242.985 35.8456 239.964 35.8456ZM240.577 29.6258C241.869 29.6258 243.018 29.1697 244.024 28.2574C245.031 27.3452 245.598 26.2463 245.724 24.9609C245.851 23.6755 245.501 22.5766 244.674 21.6644C243.848 20.7521 242.788 20.296 241.497 20.296C240.205 20.296 239.056 20.7521 238.049 21.6644C237.043 22.5766 236.476 23.6755 236.349 24.9609C236.223 26.2463 236.573 27.3452 237.399 28.2574C238.226 29.1697 239.285 29.6258 240.577 29.6258ZM255.434 29.6258C257.517 29.6258 258.712 28.0708 259.019 24.9609L260.092 14.0762L266.342 14.0762L265.269 24.9609C264.553 32.2174 261.071 35.8456 254.821 35.8456L252.524 35.8456L253.137 29.6258L255.434 29.6258ZM286.667 14.0762L286.054 20.296L276.679 20.296L276.526 21.851L284.338 21.851L283.725 28.0708L275.913 28.0708L275.76 29.6258L285.135 29.6258L284.521 35.8456L268.896 35.8456L271.042 14.0762L286.667 14.0762ZM299.727 14.0762L306.759 14.0762L306.146 20.296L299.114 20.296C297.823 20.296 296.673 20.7521 295.667 21.6644C294.66 22.5766 294.094 23.6755 293.967 24.9609C293.84 26.2463 294.19 27.3452 295.017 28.2574C295.844 29.1697 296.903 29.6258 298.195 29.6258L305.226 29.6258L304.613 35.8456L297.581 35.8456C294.561 35.8456 292.087 34.7831 290.161 32.658C288.235 30.5328 287.421 27.9672 287.717 24.9609C288.013 21.9546 289.334 19.3889 291.679 17.2638C294.024 15.1387 296.707 14.0762 299.727 14.0762ZM320.61 35.8456L314.36 35.8456L315.893 20.296L310.424 20.296L311.037 14.0762L328.225 14.0762L327.612 20.296L322.143 20.296L320.61 35.8456ZM337.874 28.0708C332.666 28.0708 330.294 25.7176 330.757 21.0113C331.213 16.3879 334.045 14.0762 339.254 14.0762L349.41 14.0762L348.797 20.296L338.641 20.296C337.599 20.296 337.054 20.5344 337.007 21.0113C336.952 21.5711 337.446 21.851 338.487 21.851L343.175 21.851C348.383 21.851 350.759 24.1627 350.304 28.7861C349.84 33.4925 347.003 35.8456 341.795 35.8456L331.639 35.8456L332.252 29.6258L342.408 29.6258C343.45 29.6258 343.998 29.3459 344.054 28.7861C344.101 28.3092 343.603 28.0708 342.562 28.0708L337.874 28.0708Z" fill="#F6E9FA"/>
</svg>

<svg width="410" height="141" fill="none" xmlns="http://www.w3.org/2000/svg"><rect x=".985" y="1.114" width="379.805" height="138.344" rx="21.322" transform="matrix(1 0 -.12187 .99255 17.451 .561)" fill="#D3A7E0" stroke="#373737" stroke-width="2.244"/><path d="m47.894 20.296-.306 3.11h4.687c1.042 0 1.614-.518 1.716-1.555.102-1.037-.367-1.555-1.41-1.555h-4.687zm-.92 9.33-.613 6.22h-6.25l2.147-21.77h10.937c5.208 0 7.557 2.592 7.046 7.775-.409 4.146-2.32 6.634-5.736 7.464l5.919 6.53H52.61l-5.636-6.22zm34.062-15.55-.613 6.22h-9.375l-.153 1.555h7.812l-.613 6.22h-7.812l-.154 1.555h9.375l-.613 6.22H63.265l2.146-21.77h15.625zm13.06 0h7.031l-.613 6.22h-7.031c-1.292 0-2.44.456-3.447 1.368-1.007.913-1.574 2.011-1.7 3.297-.127 1.285.223 2.384 1.05 3.296.826.913 1.886 1.369 3.177 1.369h7.031l-.613 6.22h-7.03c-3.022 0-5.495-1.063-7.421-3.188-1.926-2.125-2.74-4.69-2.444-7.697.296-3.006 1.617-5.572 3.962-7.697 2.344-2.125 5.027-3.188 8.048-3.188zm27.248 0-.613 6.22h-9.375l-.154 1.555h7.813l-.613 6.22h-7.813l-.153 1.555h9.375l-.613 6.22h-15.625l2.146-21.77h15.625zm9.768 10.885-1.073 10.885h-6.25l2.146-21.77h6.25l6.739 10.885 1.073-10.885h6.25l-2.146 21.77h-6.25l-6.739-10.885zm28.768 10.885h-6.25l1.533-15.55h-5.469l.613-6.22h17.188l-.613 6.22h-5.469l-1.533 15.55zm32.434-15.55-.306 3.11h4.687c1.042 0 1.614-.518 1.716-1.555.102-1.037-.368-1.555-1.409-1.555h-4.688zm-.919 9.33-.614 6.22h-6.25l2.146-21.77h10.938c5.208 0 7.557 2.592 7.046 7.775-.511 5.183-3.371 7.775-8.579 7.775h-4.687zm23.386-9.33-.307 3.11h4.687c1.042 0 1.614-.518 1.716-1.555.102-1.037-.367-1.555-1.409-1.555h-4.687zm-.92 9.33-.613 6.22h-6.25l2.146-21.77h10.937c5.209 0 7.557 2.592 7.046 7.775-.409 4.146-2.32 6.634-5.736 7.464l5.919 6.53h-7.812l-5.637-6.22zm26.103 6.22c-3.021 0-5.494-1.063-7.42-3.188-1.926-2.125-2.741-4.69-2.445-7.697.297-3.006 1.617-5.572 3.962-7.697s5.028-3.188 8.049-3.188 5.494 1.063 7.42 3.188c1.926 2.125 2.741 4.69 2.444 7.697-.296 3.006-1.617 5.572-3.962 7.697-2.344 2.125-5.027 3.188-8.048 3.188zm.613-6.22c1.292 0 2.441-.456 3.447-1.369 1.007-.912 1.574-2.01 1.7-3.296.127-1.285-.223-2.384-1.05-3.297-.826-.912-1.886-1.368-3.177-1.368-1.292 0-2.441.456-3.448 1.368-1.006.913-1.573 2.011-1.7 3.297-.126 1.285.224 2.384 1.05 3.296.827.913 1.886 1.369 3.178 1.369zm14.857 0c2.083 0 3.278-1.555 3.585-4.665l1.073-10.885h6.25l-1.073 10.885c-.716 7.256-4.198 10.885-10.448 10.885h-2.297l.613-6.22h2.297zm31.233-15.55-.613 6.22h-9.375l-.153 1.555h7.812l-.613 6.22h-7.812l-.153 1.555h9.375l-.614 6.22h-15.625l2.146-21.77h15.625zm13.06 0h7.032l-.613 6.22h-7.032c-1.291 0-2.441.456-3.447 1.368-1.007.913-1.573 2.011-1.7 3.297-.127 1.285.223 2.384 1.05 3.296.827.913 1.886 1.369 3.178 1.369h7.031l-.613 6.22h-7.032c-3.02 0-5.494-1.063-7.42-3.188-1.926-2.125-2.74-4.69-2.444-7.697.296-3.006 1.617-5.572 3.962-7.697s5.028-3.188 8.048-3.188zm20.883 21.77h-6.25l1.533-15.55h-5.469l.613-6.22h17.188l-.613 6.22h-5.469l-1.533 15.55zm17.264-7.775c-5.208 0-7.58-2.353-7.117-7.06.456-4.623 3.288-6.935 8.497-6.935h10.156l-.613 6.22h-10.156c-1.042 0-1.587.238-1.634.715-.055.56.439.84 1.48.84h4.688c5.208 0 7.584 2.312 7.129 6.935-.464 4.706-3.301 7.06-8.509 7.06h-10.156l.613-6.22h10.156c1.042 0 1.59-.28 1.646-.84.047-.477-.451-.715-1.492-.715h-4.688z" fill="#F6E9FA"/></svg>
